img/advantages__icon-03.svg

<svg width="56" height="56" viewBox="0 0 56 56" fill="none" xmlns="http://www.w3.org/2000/svg">
<path d="M42.7675 27.5028H46.6737C47.5568 27.5028 48.2753 26.7843 48.2753 25.9012V21.995C48.2753 21.1119 47.5568 20.3934 46.6737 20.3934H42.7675C41.8844 20.3934 41.1659 21.1119 41.1659 21.995V25.9012C41.1659 26.7843 41.8844 27.5028 42.7675 27.5028ZM42.8066 22.034H46.6347V25.8622H42.8066V22.034ZM42.7675 37.8934H46.6737C47.5568 37.8934 48.2753 37.1749 48.2753 36.2918V32.3856C48.2753 31.5025 47.5568 30.784 46.6737 30.784H42.7675C41.8844 30.784 41.1659 31.5025 41.1659 32.3856V36.2918C41.1659 37.1749 41.8844 37.8934 42.7675 37.8934ZM42.8066 32.4247H46.6347V36.2528H42.8066V32.4247ZM31.6204 27.5028H35.5267C36.4098 27.5028 37.1282 26.7843 37.1282 25.9012V21.995C37.1282 21.1119 36.4098 20.3934 35.5267 20.3934H31.6204C30.7374 20.3934 30.0189 21.1119 30.0189 21.995V25.9012C30.0189 26.7843 30.7374 27.5028 31.6204 27.5028ZM31.6595 22.034H35.4876V25.8622H31.6595V22.034ZM13.2325 40.6875H9.32632C8.44323 40.6875 7.72474 41.406 7.72474 42.2891V46.1953C7.72474 47.0784 8.44323 47.7969 9.32632 47.7969H13.2325C14.1156 47.7969 14.8341 47.0784 14.8341 46.1953V42.2891C14.8341 41.406 14.1156 40.6875 13.2325 40.6875ZM13.1935 46.1562H9.36537V42.3281H13.1935V46.1562ZM13.2325 20.3934H9.32632C8.44323 20.3934 7.72474 21.1119 7.72474 21.995V25.9012C7.72474 26.7843 8.44323 27.5028 9.32632 27.5028H13.2325C14.1156 27.5028 14.8341 26.7843 14.8341 25.9012V21.995C14.8341 21.1118 14.1156 20.3934 13.2325 20.3934ZM13.1935 25.8622H9.36537V22.034H13.1935V25.8622ZM31.6204 37.6498H35.5267C36.4098 37.6498 37.1282 36.9313 37.1282 36.0483V32.142C37.1282 31.2589 36.4098 30.5405 35.5267 30.5405H31.6204C30.7374 30.5405 30.0189 31.2589 30.0189 32.142V36.0483C30.0189 36.9313 30.7374 37.6498 31.6204 37.6498ZM31.6595 32.1811H35.4876V36.0092H31.6595V32.1811ZM49.09 3.74872H45.5828V2.49452C45.5828 1.11902 44.4638 0 43.0883 0H42.7116C41.3362 0 40.2172 1.11902 40.2172 2.49452V3.74872H15.7828V2.49452C15.7828 1.11902 14.6638 0 13.2883 0H12.9116C11.5361 0 10.4171 1.11902 10.4171 2.49452V3.74872H6.91001C4.6454 3.74872 2.80298 5.59114 2.80298 7.85575V51.8984C2.80298 54.1601 4.64288 56 6.90454 56H49.0957C51.3574 56 53.1973 54.1601 53.1973 51.8984V7.85575C53.1972 5.59114 51.3548 3.74872 49.09 3.74872ZM41.8578 2.49452C41.8578 2.02366 42.2409 1.64062 42.7117 1.64062H43.0884C43.5593 1.64062 43.9423 2.02366 43.9423 2.49452V3.74872H41.8578V2.49452ZM12.0579 2.49452C12.0579 2.02366 12.4409 1.64062 12.9117 1.64062H13.2884C13.7593 1.64062 14.1423 2.02366 14.1423 2.49452V3.74872H12.058V2.49452H12.0579ZM51.5566 51.8984C51.5566 53.2555 50.4526 54.3594 49.0956 54.3594H6.90443C5.54742 54.3594 4.44349 53.2555 4.44349 51.8984V51.8933C5.13081 52.4112 5.98513 52.7188 6.91001 52.7188H40.1691C41.2661 52.7188 42.2975 52.2915 43.0732 51.5157L51.5566 43.0324V51.8984ZM42.2362 50.0326C42.3005 49.7672 42.3355 49.4903 42.3355 49.2054V43.7297C42.3355 42.6972 43.1756 41.857 44.2082 41.857H49.6838C49.9688 41.857 50.2456 41.822 50.511 41.7577L42.2362 50.0326ZM51.5566 15.4715H16.6032C16.1501 15.4715 15.7828 15.8388 15.7828 16.2918C15.7828 16.7449 16.1501 17.1122 16.6032 17.1122H51.5566V38.3438C51.5566 39.3764 50.7164 40.2165 49.6838 40.2165H44.2082C42.2709 40.2165 40.6949 41.7926 40.6949 43.7298V49.2055C40.6949 50.2381 39.8547 51.0782 38.8222 51.0782H6.91001C5.55004 51.0782 4.4436 49.9718 4.4436 48.6117V17.1122H13.3219C13.7749 17.1122 14.1422 16.7449 14.1422 16.2918C14.1422 15.8388 13.7749 15.4715 13.3219 15.4715H4.44349V7.85575C4.44349 6.49578 5.54993 5.38934 6.9099 5.38934H10.4171V7.80128C10.4171 9.17678 11.5361 10.2958 12.9116 10.2958C13.3647 10.2958 13.7319 9.92852 13.7319 9.47548C13.7319 9.02245 13.3647 8.65517 12.9116 8.65517C12.4408 8.65517 12.0577 8.27214 12.0577 7.80128V5.38934H40.2172V7.80128C40.2172 9.17678 41.3362 10.2958 42.7117 10.2958C43.1648 10.2958 43.532 9.92852 43.532 9.47548C43.532 9.02245 43.1648 8.65517 42.7117 8.65517C42.2409 8.65517 41.8578 8.27214 41.8578 7.80128V5.38934H49.0902C50.4501 5.38934 51.5566 6.49578 51.5566 7.85575V15.4715ZM13.2325 30.5405H9.32632C8.44323 30.5405 7.72474 31.2589 7.72474 32.142V36.0483C7.72474 36.9313 8.44323 37.6498 9.32632 37.6498H13.2325C14.1156 37.6498 14.8341 36.9313 14.8341 36.0483V32.142C14.8341 31.2588 14.1156 30.5405 13.2325 30.5405ZM13.1935 36.0092H9.36537V32.1811H13.1935V36.0092ZM20.4734 27.5028H24.3796C25.2627 27.5028 25.9812 26.7843 25.9812 25.9012V21.995C25.9812 21.1119 25.2627 20.3934 24.3796 20.3934H20.4734C19.5903 20.3934 18.8718 21.1119 18.8718 21.995V25.9012C18.8718 26.7843 19.5903 27.5028 20.4734 27.5028ZM20.5124 22.034H24.3406V25.8622H20.5124V22.034ZM31.6585 46.1562C31.6382 45.7213 31.2791 45.375 30.8391 45.375C30.386 45.375 30.0188 45.7423 30.0188 46.1953C30.0188 47.0784 30.7372 47.7969 31.6203 47.7969H35.5266C36.4096 47.7969 37.1281 47.0784 37.1281 46.1953V42.2891C37.1281 41.406 36.4096 40.6875 35.5266 40.6875H31.6203C30.7372 40.6875 30.0188 41.406 30.0188 42.2891V43.4156C30.0188 43.8687 30.386 44.236 30.8391 44.236C31.2921 44.236 31.6594 43.8687 31.6594 43.4156V42.3281H35.4875V46.1562H31.6585ZM20.4734 37.6498H24.3796C25.2627 37.6498 25.9812 36.9313 25.9812 36.0483V32.142C25.9812 31.2589 25.2627 30.5405 24.3796 30.5405H20.4734C19.5903 30.5405 18.8718 31.2589 18.8718 32.142V36.0483C18.8718 36.9313 19.5903 37.6498 20.4734 37.6498ZM20.5124 32.1811H24.3406V36.0092H20.5124V32.1811ZM20.4734 47.7969H24.3796C25.2627 47.7969 25.9812 47.0784 25.9812 46.1953V42.2891C25.9812 41.406 25.2627 40.6875 24.3796 40.6875H20.4734C19.5903 40.6875 18.8718 41.406 18.8718 42.2891V46.1953C18.8718 47.0784 19.5903 47.7969 20.4734 47.7969ZM20.5124 42.3281H24.3406V46.1562H20.5124V42.3281Z" fill="url(#paint0_linear)"/>
<defs>
<linearGradient id="paint0_linear" x1="2.80298" y1="28.3011" x2="55.1928" y2="27.6679" gradientUnits="userSpaceOnUse">
<stop stop-color="#FCAF45"/>
<stop offset="0.197917" stop-color="#F77737"/>
<stop offset="0.395833" stop-color="#FD1D1D"/>
<stop offset="0.59375" stop-color="#C13584"/>
<stop offset="0.796875" stop-color="#833AB4"/>
<stop offset="1" stop-color="#405DE6"/>
</linearGradient>
</defs>
</svg>

<svg width="56" height="56" viewBox="0 0 56 56" fill="none" xmlns="http://www.w3.org/2000/svg"><path d="M42.767 27.503h3.907c.883 0 1.601-.719 1.601-1.602v-3.906c0-.883-.718-1.602-1.601-1.602h-3.907c-.883 0-1.601.719-1.601 1.602v3.906c0 .883.718 1.602 1.602 1.602zm.04-5.469h3.828v3.828h-3.828v-3.828zm-.04 15.86h3.907c.883 0 1.601-.72 1.601-1.602v-3.906c0-.884-.718-1.602-1.601-1.602h-3.907c-.883 0-1.601.719-1.601 1.602v3.906c0 .883.718 1.601 1.602 1.601zm.04-5.47h3.828v3.829h-3.828v-3.828zm-11.187-4.92h3.907c.883 0 1.601-.719 1.601-1.602v-3.906c0-.883-.718-1.602-1.601-1.602H31.62c-.883 0-1.601.719-1.601 1.602v3.906c0 .883.718 1.602 1.601 1.602zm.04-5.469h3.828v3.828H31.66v-3.828zM13.233 40.688H9.326c-.883 0-1.601.718-1.601 1.601v3.906c0 .883.718 1.602 1.601 1.602h3.906c.884 0 1.602-.719 1.602-1.602V42.29c0-.883-.718-1.602-1.601-1.602zm-.04 5.468H9.366v-3.828h3.829v3.828zm.04-25.763H9.325c-.883 0-1.601.719-1.601 1.602v3.906c0 .883.718 1.602 1.601 1.602h3.906c.884 0 1.602-.719 1.602-1.602v-3.906c0-.883-.718-1.602-1.601-1.602zm-.04 5.47H9.366v-3.829h3.829v3.828zM31.62 37.65h3.907c.883 0 1.601-.719 1.601-1.602v-3.906c0-.883-.718-1.602-1.601-1.602H31.62c-.883 0-1.601.719-1.601 1.602v3.906c0 .883.718 1.602 1.601 1.602zm.04-5.469h3.828v3.828H31.66v-3.828zM49.09 3.75h-3.507V2.495A2.497 2.497 0 0043.088 0h-.376a2.497 2.497 0 00-2.495 2.495v1.254H15.783V2.495A2.497 2.497 0 0013.288 0h-.376a2.497 2.497 0 00-2.495 2.495v1.254H6.91a4.112 4.112 0 00-4.107 4.107v44.042A4.106 4.106 0 006.905 56h42.19a4.106 4.106 0 004.102-4.102V7.856a4.112 4.112 0 00-4.107-4.107zm-7.232-1.254c0-.471.383-.854.854-.854h.376c.471 0 .854.383.854.854V3.75h-2.084V2.495zm-29.8 0c0-.471.383-.854.854-.854h.376c.471 0 .854.383.854.854V3.75h-2.084V2.495zm39.499 49.403a2.464 2.464 0 01-2.461 2.461H6.904a2.464 2.464 0 01-2.46-2.46v-.006a4.086 4.086 0 002.466.826h33.26a4.08 4.08 0 002.903-1.203l8.484-8.484v8.866zm-9.32-1.865c.063-.266.099-.543.099-.828V43.73c0-1.033.84-1.873 1.872-1.873h5.476c.285 0 .562-.035.827-.1l-8.275 8.276zm9.32-34.562H16.603a.82.82 0 100 1.641h34.954v21.232c0 1.032-.84 1.873-1.873 1.873h-5.476a3.517 3.517 0 00-3.513 3.513v5.476c0 1.032-.84 1.872-1.873 1.872H6.91a2.47 2.47 0 01-2.466-2.466v-31.5h8.878a.82.82 0 000-1.64H4.443V7.856A2.47 2.47 0 016.91 5.389h3.507v2.412a2.497 2.497 0 002.495 2.495.82.82 0 100-1.64.855.855 0 01-.854-.855V5.39h28.16v2.412a2.497 2.497 0 002.494 2.495.82.82 0 100-1.64.855.855 0 01-.854-.855V5.39h7.232a2.47 2.47 0 012.467 2.467v7.616zm-38.325 15.07H9.327c-.883 0-1.601.718-1.601 1.601v3.906c0 .883.718 1.602 1.601 1.602h3.906c.884 0 1.602-.719 1.602-1.602v-3.906c0-.883-.718-1.602-1.601-1.602zm-.038 5.468h-3.83v-3.828h3.829v3.828zm7.28-8.506h3.906c.883 0 1.601-.719 1.601-1.602v-3.906c0-.883-.718-1.602-1.601-1.602h-3.907c-.883 0-1.601.719-1.601 1.602v3.906c0 .883.718 1.602 1.601 1.602zm.038-5.469h3.829v3.828h-3.829v-3.828zm11.146 24.122a.82.82 0 00-1.64.04c0 .882.72 1.6 1.602 1.6h3.907c.883 0 1.601-.718 1.601-1.6V42.29c0-.883-.718-1.602-1.601-1.602H31.62c-.883 0-1.601.719-1.601 1.602v1.127a.82.82 0 101.64 0v-1.088h3.828v3.828h-3.829zM20.474 37.65h3.907c.883 0 1.601-.719 1.601-1.602v-3.906c0-.883-.718-1.602-1.601-1.602h-3.907c-.883 0-1.601.719-1.601 1.602v3.906c0 .883.718 1.602 1.601 1.602zm.04-5.469h3.828v3.828h-3.829v-3.828zm-.04 15.616h3.907c.883 0 1.601-.719 1.601-1.602V42.29c0-.883-.718-1.602-1.601-1.602h-3.907c-.883 0-1.601.719-1.601 1.602v3.906c0 .883.718 1.602 1.601 1.602zm.04-5.469h3.828v3.828h-3.829v-3.828z" fill="url(#paint0_linear)"/><defs><linearGradient id="paint0_linear" x1="2.803" y1="28.301" x2="55.193" y2="27.668" gradientUnits="userSpaceOnUse"><stop stop-color="#FCAF45"/><stop offset=".198" stop-color="#F77737"/><stop offset=".396" stop-color="#FD1D1D"/><stop offset=".594" stop-color="#C13584"/><stop offset=".797" stop-color="#833AB4"/><stop offset="1" stop-color="#405DE6"/></linearGradient></defs></svg>
